src/img/advantages__monitor.svg

<svg width="48" height="48" fill="none" xmlns="http://www.w3.org/2000/svg">
  <path d="M44.7992 0.799927H3.20081C1.43597 0.799927 0 2.23599 0 4.00074V30.3999C0 30.8415 0.358406 31.1999 0.799969 31.1999H47.1999C47.6415 31.1999 47.9999 30.8415 47.9999 30.3999V4.00074C48 2.23599 46.564 0.799927 44.7992 0.799927ZM46.4 29.5999H1.60003V4.00074C1.60003 3.11752 2.31844 2.39996 3.20081 2.39996H44.7992C45.6816 2.39996 46.4 3.11752 46.4 4.00074V29.5999Z" fill="#fff"/>
  <path d="M47.2 29.6H0.799969C0.358406 29.6 0 29.9584 0 30.3999V34.3991C0 36.164 1.43597 37.5999 3.20081 37.5999H44.7992C46.564 37.5999 48 36.164 48 34.3991V30.3999C48 29.9584 47.6416 29.6 47.2 29.6ZM46.4 34.3992C46.4 35.2824 45.6816 36 44.7992 36H3.20081C2.31844 36 1.60003 35.2824 1.60003 34.3992V31.2H46.4001V34.3992H46.4Z" fill="#fff"/>
  <path d="M26.3998 32.8H21.5998C21.1582 32.8 20.7998 33.1585 20.7998 33.6 20.7998 34.0416 21.1582 34.4 21.5998 34.4H26.3998C26.8413 34.4 27.1997 34.0416 27.1997 33.6 27.1997 33.1585 26.8413 32.8 26.3998 32.8zM44.0001 4H4.00016C3.5586 4 3.2002 4.35841 3.2002 4.79997V30.4C3.2002 30.8416 3.5586 31.2 4.00016 31.2H44.0002C44.4418 31.2 44.8002 30.8416 44.8002 30.4V4.79997C44.8002 4.35841 44.4418 4 44.0001 4zM43.2001 29.5999H4.80013V5.59994H43.2001V29.5999zM34.4001 42.4H13.6002C12.277 42.4 11.2002 43.4768 11.2002 44.8 11.2002 46.1232 12.277 47.2 13.6002 47.2H34.4002C35.7234 47.2 36.8002 46.1232 36.8002 44.8 36.8002 43.4768 35.7233 42.4 34.4001 42.4zM34.4001 45.6H13.6002C13.1586 45.6 12.8002 45.2408 12.8002 44.8 12.8002 44.3592 13.1586 44.0001 13.6002 44.0001H34.4002C34.8418 44.0001 35.2002 44.3592 35.2002 44.8 35.2002 45.2408 34.8418 45.6 34.4001 45.6z" fill="#fff"/>
  <path d="M32.7998 42.4001C30.1454 42.4001 28.7998 40.5161 28.7998 36.8001 28.7998 36.3585 28.4414 36.0001 27.9998 36.0001H19.9999C19.5583 36.0001 19.1999 36.3585 19.1999 36.8001 19.1999 40.5161 17.8543 42.4001 15.1999 42.4001 14.7583 42.4001 14.3999 42.7585 14.3999 43.2 14.3999 43.6416 14.7583 44 15.1999 44H32.7998C33.2414 44 33.5998 43.6416 33.5998 43.2 33.5998 42.7585 33.2414 42.4001 32.7998 42.4001zM19.0966 42.4001C20.0814 41.3089 20.6614 39.684 20.7782 37.6001H27.2222C27.3381 39.684 27.9182 41.3089 28.9038 42.4001H19.0966zM38.2273 24.3712L36.2961 22.4401 37.3705 21.3657C37.5697 21.1665 37.6497 20.8769 37.5809 20.6041 37.512 20.3312 37.3049 20.1152 37.0352 20.0337L29.0353 17.6337C28.7529 17.5488 28.4481 17.6265 28.2401 17.8345 28.0313 18.0425 27.9545 18.3481 28.0393 18.6297L30.4393 26.6296C30.5201 26.9 30.7368 27.1072 31.0096 27.176 31.2816 27.2432 31.5721 27.1648 31.7713 26.9656L32.9025 25.8336 34.8336 27.7656C34.9832 27.916 35.1872 28 35.3992 28 35.6112 28 35.8152 27.916 35.9648 27.7656L38.2272 25.5024C38.54 25.1896 38.54 24.6841 38.2273 24.3712zM35.3992 26.0688L33.6408 24.3096C33.4368 24.1056 33.1696 24.004 32.9025 24.004 32.6344 24.004 32.3672 24.1064 32.1641 24.3088L31.5865 24.8864 29.9985 19.5928 35.292 21.1808 34.6728 21.8C34.5024 21.9712 34.4088 22.1985 34.4088 22.4401 34.4088 22.6825 34.5032 22.9112 34.6744 23.0808L36.5304 24.9368 35.3992 26.0688zM33.5998 7.19995H11.1999C10.7583 7.19995 10.3999 7.55836 10.3999 7.99992V12C10.3999 12.4415 10.7583 12.7999 11.1999 12.7999H33.5998C34.0414 12.7999 34.3998 12.4415 34.3998 12V7.99992C34.3998 7.55836 34.0414 7.19995 33.5998 7.19995zM32.7999 11.2H11.9998V8.79998H32.7999V11.2zM20.8001 16H14.4001C13.9585 16 13.6001 16.3584 13.6001 16.8V19.9999C13.6001 20.4415 13.9585 20.7999 14.4001 20.7999H20.8001C21.2417 20.7999 21.6001 20.4415 21.6001 19.9999V16.8C21.6001 16.3584 21.2417 16 20.8001 16zM20 19.2H15.2V17.5999H20V19.2z" fill="#fff"/>
  <path d="M33.5998 7.19995H11.1999C10.7583 7.19995 10.3999 7.55836 10.3999 7.99992V23.1999C10.3999 23.6414 10.7583 23.9999 11.1999 23.9999H30.2447C30.4983 23.9999 30.7359 23.8807 30.8863 23.6775C31.0376 23.4743 31.084 23.2119 31.0111 22.9694L29.9983 19.5927L33.3703 20.6047C33.6128 20.6775 33.8752 20.6311 34.0775 20.4799C34.2807 20.3295 34.3999 20.0911 34.3999 19.8383V7.99992C34.3998 7.55836 34.0414 7.19995 33.5998 7.19995ZM32.7999 18.7632L29.0342 17.6336C28.7518 17.5487 28.4471 17.6264 28.239 17.8344C28.0302 18.0432 27.9535 18.348 28.0382 18.6304L29.1694 22.4H11.9998V8.79998H32.7999V18.7632Z" fill="#fff"/>
</svg>

<svg width="48" height="48" fill="none" xmlns="http://www.w3.org/2000/svg"><path d="M44.8.8H3.2A3.205 3.205 0 000 4v26.4a.8.8 0 00.8.8h46.4a.8.8 0 00.8-.8V4C48 2.237 46.564.8 44.8.8zm1.6 28.8H1.6V4c0-.882.718-1.6 1.6-1.6h41.6c.882 0 1.6.718 1.6 1.6v25.6z" fill="#fff"/><path d="M47.2 29.6H.8a.8.8 0 00-.8.8v4c0 1.764 1.436 3.2 3.2 3.2h41.6c1.764 0 3.2-1.436 3.2-3.2v-4a.8.8 0 00-.8-.8zm-.8 4.8c0 .882-.718 1.6-1.6 1.6H3.2c-.882 0-1.6-.718-1.6-1.6v-3.2h44.8v3.2z" fill="#fff"/><path d="M26.4 32.8h-4.8a.8.8 0 000 1.6h4.8a.8.8 0 000-1.6zM44 4H4a.8.8 0 00-.8.8v25.6a.8.8 0 00.8.8h40a.8.8 0 00.8-.8V4.8A.8.8 0 0044 4zm-.8 25.6H4.8v-24h38.4v24zm-8.8 12.8H13.6a2.403 2.403 0 00-2.4 2.4c0 1.323 1.077 2.4 2.4 2.4h20.8c1.323 0 2.4-1.077 2.4-2.4s-1.077-2.4-2.4-2.4zm0 3.2H13.6a.8.8 0 010-1.6h20.8a.8.8 0 010 1.6z" fill="#fff"/><path d="M32.8 42.4c-2.655 0-4-1.884-4-5.6a.8.8 0 00-.8-.8h-8a.8.8 0 00-.8.8c0 3.716-1.346 5.6-4 5.6a.8.8 0 000 1.6h17.6a.8.8 0 000-1.6zm-13.703 0c.984-1.091 1.564-2.716 1.681-4.8h6.444c.116 2.084.696 3.709 1.682 4.8h-9.807zm19.13-18.029l-1.93-1.93 1.074-1.075a.8.8 0 00-.336-1.332l-8-2.4a.799.799 0 00-.996.996l2.4 8a.8.8 0 001.332.336l1.132-1.132 1.93 1.932a.798.798 0 001.132 0l2.262-2.264a.8.8 0 000-1.13zM35.4 26.07l-1.758-1.76a1.043 1.043 0 00-1.477 0l-.578.577L30 19.593l5.293 1.588-.62.619a.901.901 0 00-.263.64c0 .242.094.471.265.64l1.856 1.857-1.13 1.132zM33.6 7.2H11.2a.8.8 0 00-.8.8v4a.8.8 0 00.8.8h22.4a.8.8 0 00.8-.8V8a.8.8 0 00-.8-.8zm-.8 4H12V8.8h20.8v2.4zm-12 4.8h-6.4a.8.8 0 00-.8.8V20a.8.8 0 00.8.8h6.4a.8.8 0 00.8-.8v-3.2a.8.8 0 00-.8-.8zm-.8 3.2h-4.8v-1.6H20v1.6z" fill="#fff"/><path d="M33.6 7.2H11.2a.8.8 0 00-.8.8v15.2a.8.8 0 00.8.8h19.045a.8.8 0 00.766-1.03l-1.013-3.377 3.372 1.012a.798.798 0 001.03-.767V8a.8.8 0 00-.8-.8zm-.8 11.563l-3.766-1.13a.799.799 0 00-.996.997l1.131 3.77H12V8.8h20.8v9.963z" fill="#fff"/></svg>
